app/dist/common/images/repare-therapeutics.svg

<svg height="18" viewBox="0 0 18 18" width="18" xmlns="http://www.w3.org/2000/svg"><path d="m0 0h18v18h-18z" fill="#f0f3fa"/><path d="m13 4.5h-2.39v1.5h2.39z" fill="#204a23"/><path d="m13 4h-2.34v1h2.34z" fill="#200d0d"/><path d="m11 4.5h-2.38v1.5h2.38z" fill="#2fb44a"/><path d="m9 4.5h-2.21v1.5h2.2v-1.5z" fill="#147a3d"/><path d="m7 4.5h-2v1.5h2z" fill="#122113"/><path d="m11 4h-2.38v1h2.38z" fill="#64bc46"/><path d="m9 4h-2.3v1h2.3z" fill="#19321a"/><path d="m7 4h-2v1h2z" fill="#010101"/><path d="m13 12.5h-2.39v1.5h2.39z" fill="#0f1b0f"/><path d="m13 12h-2.34v1h2.34z" fill="#15793d"/><path d="m11 12.5h-2.38v1.5h2.38z" fill="#1c3d1c"/><path d="m9 12.5h-2.21v1.5h2.2v-1.5z" fill="#3e1312"/><path d="m7 12.5h-2v1.5h2z" fill="#0f1b10"/><path d="m11 12h-2.38v1h2.38z" fill="#3e1312"/><path d="m9 12h-2.3v1h2.3z" fill="#15a049"/><path d="m7 12h-2v1h2z" fill="#1a351a"/><path d="m13 8.48h-2.39v1.52h2.39z" fill="#18b24b"/><path d="m13 8h-2.34v1h2.34z" fill="#6abd45"/><path d="m11 8.48h-2.38v1.52h2.38z" fill="#1c3d1c"/><path d="m9 8.48h-2.21v1.52h2.2v-1.52z" fill="#9c1c1f"/><path d="m7 8.48h-2v1.52h2z" fill="#204a23"/><path d="m11 8h-2.38v1h2.38z" fill="#188441"/><path d="m9 8h-2.3v1h2.3z" fill="#15793d"/><path d="m7 8h-2v1h2z" fill="#11190f"/></svg>

<!-- by TradingView --><svg width="18" height="18" viewBox="0 0 18 18" xmlns="http://www.w3.org/2000/svg"><path fill="#F0F3FA" d="M0 0h18v18H0z"/><path d="M13 4.5h-2.39V6H13V4.5Z" fill="#204A23"/><path d="M13 4h-2.34v1H13V4Z" fill="#200D0D"/><path d="M11 4.5H8.62V6H11V4.5Z" fill="#2FB44A"/><path d="M9 4.5H6.79V6h2.2V4.5Z" fill="#147A3D"/><path d="M7 4.5H5V6h2V4.5Z" fill="#122113"/><path d="M11 4H8.62v1H11V4Z" fill="#64BC46"/><path d="M9 4H6.7v1H9V4Z" fill="#19321A"/><path d="M7 4H5v1h2V4Z" fill="#010101"/><path d="M13 12.5h-2.39V14H13v-1.5Z" fill="#0F1B0F"/><path d="M13 12h-2.34v1H13v-1Z" fill="#15793D"/><path d="M11 12.5H8.62V14H11v-1.5Z" fill="#1C3D1C"/><path d="M9 12.5H6.79V14h2.2v-1.5Z" fill="#3E1312"/><path d="M7 12.5H5V14h2v-1.5Z" fill="#0F1B10"/><path d="M11 12H8.62v1H11v-1Z" fill="#3E1312"/><path d="M9 12H6.7v1H9v-1Z" fill="#15A049"/><path d="M7 12H5v1h2v-1Z" fill="#1A351A"/><path d="M13 8.48h-2.39V10H13V8.48Z" fill="#18B24B"/><path d="M13 8h-2.34v1H13V8Z" fill="#6ABD45"/><path d="M11 8.48H8.62V10H11V8.48Z" fill="#1C3D1C"/><path d="M9 8.48H6.79V10h2.2V8.48Z" fill="#9C1C1F"/><path d="M7 8.48H5V10h2V8.48Z" fill="#204A23"/><path d="M11 8H8.62v1H11V8Z" fill="#188441"/><path d="M9 8H6.7v1H9V8Z" fill="#15793D"/><path d="M7 8H5v1h2V8Z" fill="#11190F"/></svg>
